X:96
T:Portiren Pas D'Oci
M:2/4
L:1/8
N:Modr
N:La Bourre 4th edition 1929, page 92
Z:Steve Mansfield www.lesession.co.uk June 2012
K:C
!f! G | c d f e | d > c d e | d3 c | 
A2 !fermata! G G | c d f e | d > [e/g/] [df] [eg] | [ce] ([Ad]d) | !fermata! c4 |]

